X:830
T: Leitrim Dairymaid
T: Cail\'in D\'eir\'i
S: B.Breathnach:"Ceol Rince na hEireann" IV/50
Z: B.Black
L: 1/8
M: 12/8
Q: 360
R: jig
K: Ador
AcA AcA BdB BAG|AcA AcA B3 g3|
AcA AcA BdB BAG|gfe dcB A3 E3|
AcA AcA BdB BAG|AcA AcA B3 g3|
AcA AcA BdB BAG|gfe dcB A3 f3||
g2e e2f gfe dcB|f2e e2f g3 a2f|
g2e e2f gfe dcB|ege dcB A3 f3|
g2e e2f gfe dcB|g2e e2f g3 a3|
b2g a2f gfe dcB|gfe dcB A3 E3||
